contributed-vectors/adobe_scan.svg

<svg width="192" height="192" viewBox="0 0 192 192" fill="none" xmlns="http://www.w3.org/2000/svg">
<g clip-path="url(#clip0)">
<rect x="20" y="20" width="152" height="152" rx="10" fill="#9ABEFF"/>
<path fill-rule="evenodd" clip-rule="evenodd" d="M82.6316 109.921H111.012L96.8218 85.207L82.6316 109.921V109.921Z" stroke="white" stroke-width="5" stroke-linejoin="round"/>
<path fill-rule="evenodd" clip-rule="evenodd" d="M92.8648 80.6241L93.7068 81.6033L96.8247 85.2069L99.8747 81.233L100.578 80.3074C100.618 80.2553 100.654 80.2005 100.686 80.1427C101.045 79.4776 101.25 78.7159 101.25 77.9055C101.25 75.2933 99.1287 73.1794 96.5235 73.211C94.0684 73.2409 92.0308 75.2177 91.9176 77.684C91.892 78.2419 91.9637 78.7791 92.117 79.2807C92.2681 79.7764 92.5276 80.2319 92.8648 80.6241V80.6241Z" stroke="white" stroke-width="5" stroke-linejoin="round"/>
<path fill-rule="evenodd" clip-rule="evenodd" d="M119.772 111.751C119.398 111.338 118.969 111.009 118.508 110.764C118.053 110.521 117.549 110.383 117.035 110.345L115.751 110.252L111.012 109.921L111.65 114.899L111.803 116.054C111.812 116.119 111.824 116.184 111.843 116.247C112.057 116.972 112.447 117.657 113.017 118.23C114.854 120.077 117.841 120.064 119.661 118.189C121.376 116.422 121.426 113.576 119.772 111.751V111.751Z" stroke="white" stroke-width="5" stroke-linejoin="round"/>
<path fill-rule="evenodd" clip-rule="evenodd" d="M76.5319 110.716C76.4672 110.725 76.403 110.738 76.3403 110.756C75.6182 110.971 74.9374 111.364 74.3675 111.937C72.5305 113.784 72.5441 116.787 74.4086 118.617C76.1657 120.341 78.9965 120.392 80.811 118.729C81.2215 118.353 81.5487 117.922 81.7931 117.458C82.0347 117 82.1716 116.494 82.2089 115.977L82.3022 114.685L82.6315 109.921L77.6804 110.562L76.5319 110.716V110.716Z" stroke="white" stroke-width="5" stroke-linejoin="round"/>
</g>
<defs>
<clipPath id="clip0">
<rect width="192" height="192" fill="white"/>
</clipPath>
</defs>
</svg>

<svg xmlns="http://www.w3.org/2000/svg" width="192" height="192" fill="none"><g clip-path="url(#a)"><rect width="152" height="152" x="20" y="20" fill="#9ABEFF" rx="10"/><path stroke="#fff" stroke-linejoin="round" stroke-width="5" d="M82.632 109.921h28.38l-14.19-24.714-14.19 24.714ZM92.865 80.624l.842.98 3.118 3.603 3.05-3.974.703-.926a1.32 1.32 0 0 0 .108-.164 4.696 4.696 0 0 0 .564-2.237c0-2.613-2.121-4.727-4.727-4.695-2.455.03-4.492 2.007-4.605 4.473a4.711 4.711 0 0 0 .199 1.597c.151.495.41.95.748 1.343ZM119.772 111.751a4.644 4.644 0 0 0-1.264-.987 3.705 3.705 0 0 0-1.473-.419l-1.284-.093-4.739-.331.638 4.978.153 1.155c.009.065.021.13.04.193.214.725.604 1.41 1.174 1.983a4.651 4.651 0 0 0 6.644-.041c1.715-1.767 1.765-4.613.111-6.438Z" clip-rule="evenodd"/><path stroke="#fff" stroke-linejoin="round" stroke-width="5" d="M76.532 110.716a1.387 1.387 0 0 0-.192.04 4.644 4.644 0 0 0-1.972 1.181 4.713 4.713 0 0 0 .04 6.68c1.758 1.724 4.588 1.775 6.403.112.41-.376.738-.807.982-1.271a3.75 3.75 0 0 0 .416-1.481l.093-1.292.33-4.764-4.952.641-1.148.154Z" clip-rule="evenodd"/></g><defs><clipPath id="a"><path fill="#fff" d="M0 0h192v192H0z"/></clipPath></defs></svg>
